X:1
T:Title
%%score 1 ( 2 3 )
L:1/8
Q:1/4=100
M:4/4
K:Bb
V:1 treble nm="Grand Piano, Soprano"
V:2 bass nm="Choir Pad, The Angels� Chorus DeArmond"
V:3 bass 
V:1
 B3 A B2 F2 | G3 A B2 G2 | F2 B2 d2 B2 | d3 c c4 | B3 c d2 B2 | c3 d e2 c2 | B2 F2 dcBA | %7
w: By~Joseph~Lincoln~Hall * * *|||||||
 [DB]6 z2 | [FAc][FAc][FAc][FAc] [FAc][FAc][FAc][FAc] | [FBd][FBd][FBd][FBd] [FBd][FBd][FBd][FBd] | %10
w: |||
 [GBe][GBe][GBe][GBe] [GBe][GBe][GBe][GBe] | [FBd][FBd][FBd][FBd] [FBd][FBd][FBd][FBd] | %12
w: ||
 [FB]3 [FB] [FAc]2 [FAc]2 | [FBd]3 [FBd] [GBe]2 [^F_d=e]2 | [FBdf]2 [FBd]>[FB] [FBd]2 [EAc]2 | %15
w: |||
 [DFB]6 z2 | [FB]3 [Fc] [Fd]2 [FB]2 | [GBe]2 [GBe]>[GBe] [FBd]4 | [Fc]3 [Fd] [Fe]2 [Fc]2 | %19
w: ||||
 [Fce]2 [Fce]>[Fce] [FBd]4 | [FBdf]3 [FBdf] [FAce]2 [FBd]2 | [Gc]3 [G=Bd] [Gce]2 [EGc]2 | %22
w: |||
 [FB]2 [FBdf]>[FAe] [FBd]2 [EFc]2 | [DFB]8 |] %24
w: ||
V:2
 B,,2 [F,B,D]2 [F,B,D]2 [F,B,D]2 | E,2 [G,B,E]2 [G,B,E]2 [G,B,E]2 | %2
 B,,2 [F,B,D]2 [F,B,D]2 [F,B,D]2 | [G,B,C=E]2 [G,B,CE]2 [F,A,C_E]2 [F,A,CE]2 | %4
 B,,2 [F,B,D]2 [F,B,D]2 [F,B,D]2 | [E,G,C]2 [E,G,C]2 [E,G,C]2 [E,G,C]2 | [F,B,D]2 [F,B,D]2 DEDC | %7
 [B,,B,]6 z2 | E3 D C2 F,2 | D3 C B,2 F,2 | G,2 B,2 E2 G,2 | F,6 z2 | [B,D]3 [B,D] [A,C]2 [A,C]2 | %13
 [_A,B,D]3 [A,B,D] [G,B,E]2 [^F,B,_D=E]2 | [F,B,D]2 [F,D]>[F,D] [F,B,]2 [F,A,]2 | [B,,B,]6 z2 | %16
 [B,D]3 [B,D] [B,D]2 [B,D]2 | B,-[F,B,] [G,B,]>[A,B,] B,4 | [F,A,]3 [F,A,] [F,C]2 [F,A,]2 | %19
 A,-[G,A,] A,>[F,A,] B,4 | [B,D]3 [B,D] [A,C]2 [B,D]2 | [E,B,]3 [D,=B,] [C,C]2 [E,C]2 | %22
 [F,D]2 [F,D]>[F,C] [F,B,]2 [F,A,]2 | [B,,B,]8 |] %24
V:3
 x8 | x8 | x8 | x8 | x8 | x8 | z4 F,4 | x8 | x8 | x8 | x8 | x8 | x8 | x8 | x8 | x8 | x8 | %17
 .E,2 z2 z4 | x8 | .F,2 z2 z4 | x8 | x8 | x8 | x8 |] %24

